X: 1842
T: Sûzinâk Longa
C: Turhan Yalçın
O: Turkey
F: http://compmusic.upf.edu/node/140
N: suzinak-zirgule--longa--nimsofyan----turhan_yalcin
N: makam= suzinak-zirgule
N: form= longa
N: usul= nimsofyan = 2/4
M: 2/4
L: 1/16
K: C _1/4B _7/8e _7/8A ^f
Q: 1/4=108
%%MIDI tuningsystem comma53
G2Bc d3c  | edec B4  | G2Bc d3_7/8b  | =agfe d2BA  | 
w:  1. HANE  |   |   |   | 
G2Bc d3c  | edec B4  | G2Bc d3_7/8b  | =a{b}g{a}f{g}e {f}d2e/f/g/a/  | 
w:   |   |   |   | 
_7/8b=agf g4  | _7/8b=agf e4  | gfed dccB  | \
w:   |   |   | 
BAAG G4  | 
w:   | 
_7/8b=agf g4  | _7/8b=agf e4  | gfed dccB  | \
w:   |   |   | 
BAAG G4  | 
w:   | 
de2d edec  | df2e fefd  | dg2f gfg=a  | 
w:  TESLİM  |   |   | 
_7/8b=agf g4  | c/d/c/B/c2 e4  | B/c/B/A/B/c/B/c/ d4  | \
w:   |   |   | 
dgfe dc2B2A2G {A}G4  | 
w:   | 
de2d edec  | df2e fefd  | dg2f gfg=a  | 
w:  TESLİM  |   |   | 
_7/8b=agf g4  | c/d/c/B/c2 e4  | B/c/B/A/B/c/B/c/ d4  | \
w:   |   |   | 
dgfe dc2B2A2G {A}G4  | 
w:   | 
dcd2 gfg2  | =agfg a4  | =ac'_3/4ba agg^3/4f  | \
w:  2. HANE  |   |   | 
gfg=a _3/4e4  | 
w:   | 
d2dd _1/4edc_2/4B  | c4 dc_2/4B=A  | \
w:   |   | 
=A3g f_3/4edc  | c_2/4BB=A A4  | 
w:   |   | 
de2d edec  | df2e fefd  | dg2f gfg=a  | 
w:  TESLİM  |   |   | 
_7/8b=agf g4  | c/d/c/B/c2 e4  | B/c/B/A/B/c/B/c/ d4  | \
w:   |   |   | 
dgfe dc2B2A2G {A}G4  | 
w:   | 
de2d edec  | df2e fefd  | dg2f gfg=a  | 
w:  TESLİM  |   |   | 
_7/8b=agf g4  | c/d/c/B/c2 e4  | B/c/B/A/B/c/B/c/ d4  | \
w:   |   |   | 
dgfe dc2B2A2G {A}G4  | 
w:   | 
dcd2 cBc2  | f/g/f/e/d/e/d/c/ B4  | cedf egfe  | 
w:  3. HANE  |   |   | 
edcd e4  | ed{e}de f4  | dc{d}cd e4  | d_7/8b=ag fedc  | 
w:   |   |   |   | 
dc2B {c}Bcde  | dcd2 cBc2  | f/g/f/e/d/e/d/c/ B4  | 
w:   |  3. HANE  |   | 
cedf egfe  | edcd e4  | ed{e}de f4  | dc{d}cd e4  | 
w:   |   |   |   | 
d_7/8b=ag fedc  | dc2B {c}Bcde  | de2d edec  | 
w:   |   |  TESLİM  | 
df2e fefd  | dg2f gfg=a  | _7/8b=agf g4  | \
w:   |   |   | 
c/d/c/B/c2 e4  | 
w:   | 
B/c/B/A/B/c/B/c/ d4  | dgfe dc2B2A2G {A}G4  | \
w:   |   | 
de2d edec  | 
w:  TESLİM  | 
df2e fefd  | dg2f gfg=a  | _7/8b=agf g4  | \
w:   |   |   | 
c/d/c/B/c2 e4  | 
w:   | 
B/c/B/A/B/c/B/c/ d4  | dgfe dc2B2A2G {A}G4  | \
w:   |   | 
g3/2f/g2 e4  | 
w:  4. HANE  | 
a3/2g/fa g4  | gabc' bd'c'b  | b{c'}a{b}a{b}g {a}g4  | \
w:   |   |   | 
baag gffe  | 
w:   | 
f{g}e{f}d{e}d {e}c{d}B{c}A2  | G2Bc _3/4d2cB  | \
w:   |   | 
BAAG G4  | g3/2f/g2 e4  | 
w:   |  4. HANE  | 
a3/2g/fa g4  | gabc' bd'c'b  | b{c'}a{b}a{b}g {a}g4  | \
w:   |   |   | 
baag gffe  | 
w:   | 
f{g}e{f}d{e}d {e}c{d}B{c}A2  | G2Bc _3/4d2cB  | \
w:   |   | 
BAAG G4  | de2d edec  | 
w:   |  TESLİM  | 
df2e fefd  | dg2f gfg=a  | _7/8b=agf g4  | \
w:   |   |   | 
c/d/c/B/c2 e4  | 
w:   | 
B/c/B/A/B/c/B/c/ d4  | dgfe dc2B2A2G {A}G4  | \
w:   |   | 
de2d edec  | 
w:  TESLİM  | 
df2e fefd  | dg2f gfg=a  | _7/8b=agf g4  | \
w:   |   |   | 
c/d/c/B/c2 e4  | 
w:   | 
B/c/B/A/B/c/B/c/ d4  | dgfe dc2B2A2G {A}G4  | |


